;FLAVOR:Marlin
;TIME:2639
;Filament used: 0.888965m
;Layer height: 0.12
;MINX:94.972
;MINY:86.875
;MINZ:0.2
;MAXX:133.631
;MAXY:133.074
;MAXZ:22.4
;Generated with Cura_SteamEngine main
M82 ;absolute extrusion mode
; Ender 3 Custom Start G-code
G92 E0 ; Reset Extruder
G28 ; Home all axes
G29 ; Level bed

M104 S175 ; Start heating up the nozzle most of the way
M190 S50.0 ; Start heating the bed, wait until target temperature reached
M109 S205.0 ; Finish heating the nozzle
G1 Z2.0 F3000 ; Move Z Axis up little to prevent scratching of Heat Bed
G1 X0.1 Y20 Z0.3 F5000.0 ; Move to start position
G1 X0.1 Y200.0 Z0.3 F1500.0 E15 ; Draw the first line
G1 X0.4 Y200.0 Z0.3 F5000.0 ; Move to side a little
G1 X0.4 Y20 Z0.3 F1500.0 E30 ; Draw the second line
G92 E0 ; Reset Extruder
G1 Z2.0 F3000 ; Move Z Axis up little to prevent scratching of Heat Bed
G1 X5 Y20 Z0.3 F5000.0 ; Move over to prevent blob squish
G92 E0
G92 E0
G1 F1800 E-6.5
;LAYER_COUNT:186
;LAYER:0
M107
G0 F9000 X97.569 Y90.548 Z0.2
G0 X94.972 Y98.149
;TYPE:SKIRT
G1 F1800 E0.20788
G1 X94.986 Y97.29 E0.22359
G1 X95.043 Y96.371 E0.24044
G1 X95.179 Y95.461 E0.25727
G1 X95.394 Y94.565 E0.27412
G1 X95.686 Y93.692 E0.29096
G1 X96.052 Y92.848 E0.30779
G1 X96.491 Y92.038 E0.32464
G1 X96.998 Y91.269 E0.34149
G1 X97.569 Y90.548 E0.35832
G1 X98.201 Y89.879 E0.37515
G1 X98.889 Y89.267 E0.392
G1 X99.628 Y88.717 E0.40885
G1 X100.411 Y88.233 E0.42569
G1 X101.233 Y87.819 E0.44253
G1 X102.088 Y87.478 E0.45936
G1 X102.97 Y87.212 E0.47622
G1 X103.871 Y87.024 E0.49305
G1 X104.785 Y86.915 E0.50989
G1 X105.293 Y86.889 E0.5192
G1 X105.952 Y86.875 E0.53125
G1 X113.904 Y86.88 E0.67672
G1 X115.521 Y86.915 E0.70631
G1 X116.44 Y86.975 E0.72316
G1 X117.493 Y87.144 E0.74266
G1 X117.851 Y87.22 E0.74936
G1 X118.743 Y87.45 E0.76621
G1 X119.992 Y87.919 E0.79062
G1 X120.335 Y88.073 E0.79749
G1 X121.157 Y88.486 E0.81432
G1 X121.941 Y88.969 E0.83117
G1 X122.68 Y89.518 E0.84801
G1 X123.368 Y90.13 E0.86485
G1 X124.001 Y90.798 E0.88169
G1 X124.793 Y91.834 E0.90554
G1 X125.166 Y92.392 E0.91782
G1 X126.163 Y93.928 E0.95132
G1 X127.607 Y96.02 E0.99782
G1 X129.088 Y98.043 E1.04368
G1 X130.96 Y100.439 E1.0993
G1 X131.264 Y100.815 E1.10815
G1 X131.811 Y101.555 E1.12498
G1 X132.292 Y102.341 E1.14184
G1 X132.703 Y103.164 E1.15867
G1 X133.041 Y104.021 E1.17552
G1 X133.303 Y104.903 E1.19235
G1 X133.488 Y105.805 E1.2092
G1 X133.616 Y107.158 E1.23406
G1 X133.631 Y107.809 E1.24597
G1 X133.63 Y111.919 E1.32115
G1 X133.62 Y112.622 E1.33402
G1 X133.567 Y113.541 E1.35085
G1 X133.434 Y114.452 E1.3677
G1 X133.223 Y115.348 E1.38453
G1 X132.935 Y116.222 E1.40137
G1 X132.572 Y117.069 E1.41823
G1 X132.137 Y117.88 E1.43506
G1 X131.363 Y119.011 E1.46013
G1 X130.645 Y119.925 E1.48139
G1 X130.23 Y120.44 E1.49349
G1 X128.693 Y122.46 E1.53992
G1 X127.221 Y124.512 E1.58612
G1 X125.771 Y126.661 E1.63355
G1 X125.052 Y127.765 E1.65765
G1 X124.517 Y128.514 E1.67448
G1 X124.055 Y129.066 E1.68765
G1 X123.87 Y129.272 E1.69272
G1 X123.225 Y129.929 E1.70956
G1 X122.526 Y130.528 E1.7264
G1 X121.778 Y131.065 E1.74324
G1 X120.879 Y131.591 E1.7623
G1 X120.566 Y131.754 E1.76875
G1 X119.732 Y132.143 E1.78559
G1 X118.867 Y132.458 E1.80243
G1 X117.861 Y132.723 E1.82146
G1 X117.487 Y132.802 E1.82845
G1 X116.579 Y132.953 E1.84529
G1 X115.777 Y133.025 E1.86002
G1 X115.139 Y133.055 E1.8717
G1 X114.077 Y133.072 E1.89113
G1 X106.076 Y133.074 E2.03749
G1 X105.421 Y133.064 E2.04948
G1 X104.502 Y133.01 E2.06632
G1 X103.591 Y132.876 E2.08316
G1 X102.695 Y132.664 E2.10001
G1 X101.821 Y132.375 E2.11685
G1 X100.975 Y132.011 E2.13369
G1 X100.165 Y131.575 E2.15052
G1 X99.394 Y131.071 E2.16737
G1 X98.671 Y130.501 E2.18421
G1 X98 Y129.871 E2.20105
G1 X97.386 Y129.185 E2.21789
G1 X96.833 Y128.449 E2.23473
G1 X96.347 Y127.667 E2.25157
G1 X95.931 Y126.846 E2.26841
G1 X95.587 Y125.992 E2.28525
G1 X95.319 Y125.111 E2.3021
G1 X95.128 Y124.211 E2.31893
G1 X95.016 Y123.297 E2.33577
G1 X94.988 Y122.782 E2.34521
G1 X94.973 Y122.131 E2.35712
G1 X94.974 Y120.53 E2.38641
G1 X94.984 Y119.833 E2.39916
G1 X95.021 Y119.086 E2.41284
G1 X95.26 Y116.274 E2.46447
G1 X95.401 Y113.779 E2.51018
G1 X95.472 Y111.232 E2.55679
G1 X95.472 Y108.72 E2.60274
G1 X95.399 Y106.177 E2.64928
G1 X95.257 Y103.693 E2.6948
G1 X95.135 Y102.343 E2.71959
G1 X95.126 Y102.155 E2.72304
G1 X95.029 Y100.957 E2.74502
G1 X94.996 Y100.309 E2.75689
G1 X94.973 Y99.041 E2.78009
G1 X94.972 Y98.149 E2.79641
G0 F9000 X95.372 Y98.148
G1 F1800 X95.386 Y97.297 E2.81198
G1 X95.442 Y96.396 E2.82849
G1 X95.578 Y95.503 E2.84502
G1 X95.793 Y94.626 E2.86153
G1 X96.084 Y93.771 E2.87806
G1 X96.45 Y92.945 E2.89458
G1 X96.887 Y92.155 E2.9111
G1 X97.393 Y91.407 E2.92762
G1 X97.963 Y90.706 E2.94415
G1 X98.592 Y90.059 E2.96065
G1 X99.276 Y89.469 E2.97718
G1 X100.01 Y88.943 E2.9937
G1 X100.787 Y88.483 E3.01021
G1 X101.603 Y88.094 E3.02675
G1 X102.449 Y87.779 E3.04326
G1 X103.32 Y87.54 E3.05979
G1 X104.208 Y87.378 E3.0763
G1 X105.304 Y87.289 E3.09641
G1 X105.952 Y87.275 E3.10827
G1 X113.896 Y87.28 E3.25359
G1 X115.513 Y87.315 E3.28318
G1 X116.414 Y87.375 E3.2997
G1 X117.41 Y87.535 E3.31815
G1 X117.768 Y87.611 E3.32484
G1 X118.642 Y87.838 E3.34136
G1 X119.828 Y88.284 E3.36454
G1 X120.171 Y88.438 E3.37142
G1 X120.978 Y88.844 E3.38794
G1 X121.745 Y89.32 E3.40446
G1 X122.468 Y89.861 E3.42098
G1 X123.139 Y90.465 E3.43749
G1 X123.755 Y91.126 E3.45402
G1 X124.461 Y92.057 E3.47539
G1 X124.831 Y92.61 E3.48757
G1 X125.842 Y94.168 E3.52154
G1 X127.259 Y96.221 E3.56717
G1 X128.779 Y98.296 E3.61423
G1 X130.669 Y100.716 E3.6704
G1 X130.953 Y101.067 E3.67866
G1 X131.489 Y101.793 E3.69516
G1 X131.959 Y102.565 E3.7117
G1 X132.359 Y103.374 E3.72821
G1 X132.685 Y104.217 E3.74474
G1 X132.936 Y105.084 E3.76125
G1 X133.109 Y105.971 E3.77778
G1 X133.216 Y107.17 E3.7998
G1 X133.231 Y107.809 E3.8115
G1 X133.23 Y111.913 E3.88657
G1 X133.22 Y112.616 E3.89943
G1 X133.167 Y113.518 E3.91596
G1 X133.035 Y114.411 E3.93248
G1 X132.824 Y115.289 E3.94899
G1 X132.536 Y116.145 E3.96552
G1 X132.174 Y116.972 E3.98203
G1 X131.74 Y117.764 E3.99855
G1 X131.048 Y118.764 E4.0208
G1 X130.42 Y119.565 E4.03942
G1 X129.933 Y120.17 E4.05362
G1 X128.366 Y122.231 E4.10098
G1 X126.897 Y124.278 E4.14708
G1 X125.437 Y126.44 E4.1948
G1 X124.717 Y127.547 E4.21896
G1 X124.191 Y128.282 E4.23549
G1 X123.757 Y128.798 E4.24782
G1 X123.572 Y129.004 E4.25289
G1 X122.939 Y129.649 E4.26942
G1 X122.252 Y130.235 E4.28594
G1 X121.516 Y130.758 E4.30245
G1 X120.694 Y131.236 E4.31985
G1 X120.381 Y131.399 E4.3263
G1 X119.563 Y131.78 E4.34281
G1 X118.713 Y132.087 E4.35934
G1 X117.778 Y132.332 E4.37703
G1 X117.404 Y132.411 E4.38402
G1 X116.074 Y132.601 E4.4086
G1 X115.747 Y132.626 E4.41459
G1 X115.132 Y132.655 E4.42586
G1 X114.07 Y132.672 E4.44529
G1 X106.082 Y132.674 E4.59141
G1 X105.427 Y132.664 E4.6034
G1 X104.526 Y132.61 E4.61991
G1 X103.633 Y132.477 E4.63642
G1 X102.755 Y132.265 E4.65295
G1 X101.899 Y131.976 E4.66947
G1 X101.072 Y131.613 E4.68599
G1 X100.281 Y131.178 E4.70251
G1 X99.531 Y130.675 E4.71903
G1 X98.828 Y130.108 E4.73555
G1 X98.179 Y129.48 E4.75207
G1 X97.587 Y128.798 E4.76859
G1 X97.058 Y128.066 E4.78511
G1 X96.596 Y127.29 E4.80163
G1 X96.205 Y126.476 E4.81815
G1 X95.887 Y125.631 E4.83467
G1 X95.645 Y124.761 E4.85119
G1 X95.481 Y123.872 E4.86772
G1 X95.388 Y122.77 E4.88795
G1 X95.373 Y122.131 E4.89965
G1 X95.374 Y120.536 E4.92882
G1 X95.384 Y119.839 E4.94158
G1 X95.42 Y119.12 E4.95475
G1 X95.658 Y116.329 E5.00599
G1 X95.801 Y113.778 E5.05273
G1 X95.872 Y111.243 E5.09912
G1 X95.872 Y108.708 E5.14549
G1 X95.799 Y106.145 E5.19239
G1 X95.657 Y103.663 E5.23787
G1 X95.534 Y102.307 E5.26278
G1 X95.427 Y100.925 E5.28814
G1 X95.396 Y100.301 E5.29956
G1 X95.373 Y99.04 E5.32264
G1 X95.372 Y98.148 E5.33895
G1 F1800 E-1.16105
;MESH:O3CamMount.stl
G0 F9000 X106.173 Y121.876
;TYPE:WALL-INNER
G1 F1800 E5.54683
G1 X114.709 Y121.872 E5.70298
G1 X115.149 Y121.857 E5.71103
G1 X115.448 Y121.8 E5.7166
G1 X115.642 Y121.686 E5.72072
G1 X115.721 Y121.464 E5.72503
G1 X115.766 Y121.155 E5.73074
G1 X115.803 Y120.642 E5.74015
G1 X115.805 Y116.715 E5.81198
G1 X115.816 Y115.645 E5.83156
G1 X115.845 Y114.837 E5.84635
G1 X115.879 Y114.315 E5.85592
G1 X115.925 Y113.857 E5.86434
G1 X116.005 Y113.368 E5.8734
G1 X116.098 Y113.003 E5.88029
G1 X116.288 Y112.552 E5.88925
G1 X116.605 Y112.204 E5.89786
G1 X117.131 Y111.925 E5.90875
G1 X117.77 Y111.878 E5.92047
G1 X122.431 Y111.875 E6.00573
G1 X122.431 Y109.975 E6.04049
G1 X122.431 Y108.075 E6.07525
G1 X117.803 Y108.074 E6.15991
G1 X117.331 Y108.052 E6.16855
G1 X116.959 Y107.937 E6.17567
G1 X116.598 Y107.742 E6.18318
G1 X116.286 Y107.395 E6.19172
G1 X116.098 Y106.947 E6.2006
G1 X116.005 Y106.581 E6.20751
G1 X115.925 Y106.092 E6.21658
G1 X115.877 Y105.613 E6.22538
G1 X115.844 Y105.095 E6.23488
G1 X115.816 Y104.29 E6.24961
G1 X115.808 Y103.749 E6.25951
G1 X115.804 Y99.521 E6.33685
G1 X115.781 Y98.957 E6.34718
G1 X115.724 Y98.459 E6.35635
G1 X115.584 Y98.208 E6.36161
G1 X115.217 Y98.101 E6.3686
G1 X114.689 Y98.078 E6.37827
G1 X106.173 Y98.075 E6.53405
G1 X106.173 Y99.376 E6.55785
G1 X108.518 Y99.387 E6.60075
G1 X109.642 Y99.408 E6.62131
G1 X110.963 Y99.458 E6.6455
G1 X111.463 Y99.492 E6.65466
G1 X111.936 Y99.537 E6.66336
G1 X112.224 Y99.573 E6.66866
G1 X112.803 Y99.675 E6.67942
G1 X113.289 Y99.819 E6.68869
G1 X113.627 Y99.96 E6.69539
G1 X114.034 Y100.219 E6.70422
G1 X114.339 Y100.584 E6.71292
G1 X114.543 Y100.985 E6.72115
G1 X114.65 Y101.469 E6.73022
G1 X114.695 Y102.022 E6.74036
G1 X114.704 Y102.405 E6.74737
G1 X114.705 Y117.642 E7.0261
G1 X114.672 Y118.261 E7.03744
G1 X114.618 Y118.654 E7.0447
G1 X114.511 Y119.028 E7.05182
G1 X114.34 Y119.362 E7.05868
G1 X114.045 Y119.726 E7.06725
G1 X113.556 Y120.036 E7.07784
G1 X113.088 Y120.198 E7.0869
G1 X112.594 Y120.32 E7.09621
G1 X111.966 Y120.411 E7.10782
G1 X111.492 Y120.457 E7.11653
G1 X110.986 Y120.492 E7.12581
G1 X109.9 Y120.537 E7.14569
G1 X109.106 Y120.555 E7.16022
G1 X107.415 Y120.573 E7.19116
G1 X106.173 Y120.575 E7.21388
G1 X106.173 Y121.876 E7.23768
G0 F9000 X105.773 Y122.276
;TYPE:WALL-OUTER
G1 F1800 X114.721 Y122.272 E7.40136
G1 X115.199 Y122.255 E7.41011
G1 X115.58 Y122.182 E7.41721
G1 X115.87 Y122.033 E7.42317
G1 X115.993 Y121.894 E7.42657
G1 X116.111 Y121.561 E7.43303
G1 X116.164 Y121.199 E7.43972
G1 X116.194 Y120.795 E7.44713
G1 X116.203 Y120.51 E7.45235
G1 X116.205 Y116.719 E7.5217
G1 X116.216 Y115.659 E7.54109
G1 X116.244 Y114.863 E7.55566
G1 X116.277 Y114.356 E7.56496
G1 X116.325 Y113.887 E7.57358
G1 X116.389 Y113.485 E7.58103
G1 X116.484 Y113.118 E7.58796
G1 X116.629 Y112.773 E7.59481
G1 X116.853 Y112.526 E7.60091
G1 X117.244 Y112.319 E7.609
G1 X117.787 Y112.278 E7.61896
G1 X122.831 Y112.275 E7.71123
G1 X122.831 Y109.975 E7.75331
G1 X122.831 Y107.675 E7.79538
G1 X117.821 Y107.674 E7.88703
G1 X117.383 Y107.652 E7.89505
G1 X117.081 Y107.556 E7.90085
G1 X116.85 Y107.423 E7.90572
G1 X116.629 Y107.177 E7.91177
G1 X116.484 Y106.832 E7.91862
G1 X116.389 Y106.464 E7.92557
G1 X116.323 Y106.051 E7.93322
G1 X116.276 Y105.587 E7.94175
G1 X116.244 Y105.081 E7.95103
G1 X116.216 Y104.284 E7.96562
G1 X116.208 Y103.749 E7.9754
G1 X116.204 Y99.521 E8.05275
G1 X116.18 Y98.926 E8.06364
G1 X116.136 Y98.547 E8.07062
G1 X116.06 Y98.24 E8.07641
G1 X115.895 Y97.944 E8.08261
G1 X115.585 Y97.77 E8.08911
G1 X115.267 Y97.703 E8.09505
G1 X114.697 Y97.678 E8.10549
G1 X105.773 Y97.675 E8.26874
G1 X105.773 Y99.774 E8.30713
G1 X108.51 Y99.787 E8.3572
G1 X109.627 Y99.808 E8.37764
G1 X110.936 Y99.857 E8.4016
G1 X111.425 Y99.89 E8.41057
G1 X111.886 Y99.934 E8.41904
G1 X112.158 Y99.968 E8.42405
G1 X112.692 Y100.059 E8.43396
G1 X113.114 Y100.181 E8.442
G1 X113.459 Y100.327 E8.44885
G1 X113.782 Y100.537 E8.4559
G1 X114.013 Y100.825 E8.46265
G1 X114.165 Y101.123 E8.46877
G1 X114.26 Y101.555 E8.47686
G1 X114.295 Y102.032 E8.48561
G1 X114.304 Y102.415 E8.49262
G1 X114.303 Y117.651 E8.77134
G1 X114.278 Y118.185 E8.78111
G1 X114.222 Y118.585 E8.7885
G1 X114.142 Y118.864 E8.79381
G1 X114.012 Y119.126 E8.79916
G1 X113.777 Y119.422 E8.80608
G1 X113.4 Y119.661 E8.81424
G1 X112.957 Y119.82 E8.82285
G1 X112.48 Y119.935 E8.83183
G1 X111.927 Y120.013 E8.84204
G1 X111.464 Y120.058 E8.85055
G1 X110.969 Y120.092 E8.85963
G1 X109.891 Y120.137 E8.87937
G1 X109.102 Y120.155 E8.8938
G1 X107.415 Y120.173 E8.92467
G1 X105.773 Y120.175 E8.9547
G1 X105.773 Y122.276 E8.99314
G0 F9000 X106.578 Y121.471
;TYPE:SKIN
G1 F1463.4 X106.998 Y121.47 E9.00259
G1 F1457.5 X107.418 Y121.469 E9.01208
G1 F1451.6 X107.838 Y121.468 E9.0216
G1 F1445.8 X108.258 Y121.467 E9.03117
G1 F1437.1 X108.678 Y121.465 E9.04079
G1 F1431.4 X109.098 Y121.464 E9.05045
G1 F1425.7 X109.518 Y121.463 E9.06015
G1 F1420.1 X109.938 Y121.462 E9.06989
G1 F1406.2 X110.213 Y121.458 E9.07633
G1 F1387.3 X110.487 Y121.454 E9.08284
G1 F1368.8 X110.761 Y121.45 E9.08943
G1 F1353.4 X111.035 Y121.447 E9.09609
G1 F1335.8 X111.309 Y121.443 E9.10285
G1 F1318.7 X111.583 Y121.439 E9.10969
G1 F1285.7 X111.946 Y121.429 E9.11899
G1 F1239.2 X112.312 Y121.418 E9.12872
G1 F1451.6 X112.711 Y121.514 E9.13803
G1 F1800 X114.682 Y121.512 E9.17409
G1 X115.109 Y121.498 E9.1819
G1 X115.358 Y121.443 E9.18657
G1 X115.407 Y121.115 E9.19263
G1 X115.442 Y120.65 E9.20116
G1 X115.443 Y119.152 E9.22857
G1 F1722.5 X115.425 Y118.76 E9.23607
G1 F1674.4 X115.431 Y118.485 E9.24148
G1 F1722.5 X115.437 Y118.21 E9.24674
G1 F1773.4 X115.443 Y117.935 E9.25184
G1 F1827.4 X115.449 Y117.66 E9.2568
G1 F1846.2 X115.454 Y116.654 E9.27474
G1 F1832.1 X115.459 Y115.649 E9.2928
G1 F1809 X115.469 Y115.243 E9.3002
G1 F1777.8 X115.48 Y114.836 E9.30774
G1 F1743.3 X115.492 Y114.571 E9.31275
G1 F1706.2 X115.504 Y114.306 E9.31787
G1 F1662.8 X115.523 Y114.057 E9.32281
G1 F1618 X115.542 Y113.806 E9.32794
G1 F1558.4 X115.573 Y113.547 E9.33345
G1 F1487.6 X115.604 Y113.288 E9.33922
G1 F1503.1 X115.706 Y113.03 E9.3453
G1 F1610.7 X115.808 Y112.771 E9.35099
G1 F1734.9 X115.911 Y112.512 E9.35628
G1 F1800 X116.074 Y112.254 E9.36186
G1 X116.27 Y112.037 E9.36721
G1 X116.501 Y111.855 E9.37259
G1 X117.029 Y111.57 E9.38357
G1 X117.754 Y111.518 E9.39686
G1 X122.071 Y111.515 E9.47583
G1 X122.071 Y109.976 E9.50399
G1 X122.071 Y108.435 E9.53218
G1 X117.802 Y108.435 E9.61027
G1 X117.266 Y108.408 E9.62009
G1 X116.852 Y108.282 E9.628
G1 X116.367 Y108.028 E9.63802
G1 X116.067 Y107.688 E9.64631
G1 X115.928 Y107.471 E9.65103
G1 X115.758 Y107.068 E9.65903
G1 F1618 X115.594 Y106.61 E9.66893
G1 F1528.7 X115.541 Y106.129 E9.67935
G1 F1640.1 X115.504 Y105.637 E9.68926
G1 F1706.2 X115.492 Y105.371 E9.6944
G1 F1739.1 X115.479 Y105.105 E9.69944
G1 F1773.4 X115.469 Y104.708 E9.70681
G1 F1804.5 X115.458 Y104.311 E9.71406
G1 F1818.2 X115.449 Y101.987 E9.75615
G1 F1786.6 X115.442 Y101.67 E9.76199
G1 F1730.8 X115.435 Y101.353 E9.76802
G1 F1726.6 X115.44 Y101.1 E9.77285
G1 F1777.8 X115.446 Y100.847 E9.77754
G1 F1800 X115.444 Y99.511 E9.80198
G1 X115.424 Y99.008 E9.81119
G1 X115.374 Y98.573 E9.8192
G1 X115.335 Y98.504 E9.82065
G1 X115.164 Y98.459 E9.82388
G1 X114.698 Y98.439 E9.83241
G1 X112.705 Y98.439 E9.86887
G1 F1454.5 X112.32 Y98.533 E9.87784
G1 F1232.9 X112.05 Y98.527 E9.88505
G1 F1258.7 X111.78 Y98.521 E9.89212
G1 F1285.7 X111.51 Y98.515 E9.89904
G1 F1313.9 X111.24 Y98.509 E9.9058
G1 F1343.3 X110.97 Y98.502 E9.91242
G1 F1363.6 X110.698 Y98.501 E9.91899
G1 F1374 X110.425 Y98.499 E9.92554
G1 F1384.6 X110.152 Y98.497 E9.93203
G1 F1395.3 X109.879 Y98.495 E9.93847
G1 F1403.5 X109.606 Y98.493 E9.94488
G1 F1414.5 X109.333 Y98.491 E9.95123
G1 F1425.7 X109.06 Y98.489 E9.95754
G1 F1437.1 X108.787 Y98.487 E9.96379
G1 F1448.7 X108.514 Y98.485 E9.97
G1 F1457.5 X106.579 Y98.481 E10.01371
G1 F1463.4 X106.579 Y98.972 E10.02476
G1 F1457.5 X108.515 Y98.979 E10.0685
G1 F1445.8 X109.08 Y98.987 E10.08137
G1 F1431.4 X109.645 Y98.995 E10.09436
G1 F1417.3 X109.91 Y99.002 E10.10052
G1 F1403.5 X110.175 Y99.009 E10.10674
G1 F1390 X110.44 Y99.017 E10.11302
G1 F1376.7 X110.705 Y99.024 E10.11936
G1 F1363.6 X110.97 Y99.032 E10.12577
G1 F1345.8 X111.226 Y99.045 E10.13204
G1 F1326 X111.483 Y99.058 E10.13843
G1 F1297.3 X111.744 Y99.078 E10.14507
G1 F1265.4 X112.006 Y99.099 E10.15191
G1 F1235 X112.269 Y99.119 E10.15894
