;FLAVOR:Marlin
;TIME:5402
;Filament used: 1.60868m
;Layer height: 0.12
;MINX:94.761
;MINY:84.237
;MINZ:0.12
;MAXX:125.326
;MAXY:136.957
;MAXZ:34.68
;Generated with Cura_SteamEngine main
M82 ;absolute extrusion mode
; Ender 3 Custom Start G-code
G92 E0 ; Reset Extruder
G28 ; Home all axes
G29 ; Level bed

M104 S175 ; Start heating up the nozzle most of the way
M190 S45.0 ; Start heating the bed, wait until target temperature reached
M109 S200.0 ; Finish heating the nozzle
G1 Z2.0 F3000 ; Move Z Axis up little to prevent scratching of Heat Bed
G1 X0.1 Y20 Z0.3 F5000.0 ; Move to start position
G1 X0.1 Y200.0 Z0.3 F1500.0 E15 ; Draw the first line
G1 X0.4 Y200.0 Z0.3 F5000.0 ; Move to side a little
G1 X0.4 Y20 Z0.3 F1500.0 E30 ; Draw the second line
G92 E0 ; Reset Extruder
G1 Z2.0 F3000 ; Move Z Axis up little to prevent scratching of Heat Bed
G1 X5 Y20 Z0.3 F5000.0 ; Move over to prevent blob squish
G92 E0
G92 E0
G1 F1500 E-3
;LAYER_COUNT:290
;LAYER:0
M107
G0 F6000 X95.569 Y110.132 Z0.12
G0 X95.229 Y110.883
;TYPE:SKIRT
G1 F1500 E0
G1 F1200 X95.269 Y110.603 E0.00564
G1 X95.385 Y110.346 E0.01127
G1 X95.569 Y110.132 E0.0169
G1 X95.805 Y109.977 E0.02254
G1 X96.114 Y109.883 E0.02898
G1 X100.332 Y109.881 E0.11316
G1 X101.764 Y109.853 E0.14174
G1 X102.722 Y109.812 E0.16088
G1 X103.437 Y109.765 E0.17518
G1 X104.077 Y109.706 E0.188
G1 X104.812 Y109.613 E0.20279
G1 X105.344 Y109.514 E0.21359
G1 X105.875 Y109.375 E0.22454
G1 X106.357 Y109.222 E0.23463
G1 X106.802 Y109.065 E0.24405
G1 X107.215 Y108.909 E0.25286
G1 X108.206 Y108.5 E0.27425
G1 X108.722 Y108.312 E0.28521
G1 X109.126 Y108.22 E0.29348
G1 X109.407 Y108.197 E0.29911
G1 X109.683 Y108.253 E0.30473
G1 X109.933 Y108.384 E0.31036
G1 X110.035 Y108.482 E0.31318
G1 X110.312 Y108.295 E0.31985
G1 X110.581 Y108.209 E0.32549
G1 X110.982 Y108.223 E0.3335
G1 X111.44 Y108.34 E0.34293
G1 X111.923 Y108.517 E0.35319
G1 X112.851 Y108.897 E0.37321
G1 X113.766 Y109.23 E0.39264
G1 X114.251 Y109.384 E0.40279
G1 X114.632 Y109.486 E0.41066
G1 X115.298 Y109.617 E0.42421
G1 X116.028 Y109.711 E0.4389
G1 X116.646 Y109.765 E0.45128
G1 X117.628 Y109.828 E0.47091
G1 X119.079 Y109.875 E0.49989
G1 X120.393 Y109.888 E0.52611
G1 X123.867 Y109.89 E0.59544
G1 X124.146 Y109.93 E0.60106
G1 X124.403 Y110.046 E0.60669
G1 X124.617 Y110.23 E0.61232
G1 X124.772 Y110.466 E0.61795
G1 X124.866 Y110.776 E0.62442
G1 X124.864 Y135.956 E1.12691
G1 X124.824 Y136.235 E1.13254
G1 X124.708 Y136.492 E1.13817
G1 X124.524 Y136.707 E1.14381
G1 X124.288 Y136.861 E1.14944
G1 X123.977 Y136.957 E1.15593
G1 X123.506 Y136.953 E1.16533
G1 X123.227 Y136.911 E1.17096
G1 X122.971 Y136.792 E1.1766
G1 X122.759 Y136.607 E1.18221
G1 X122.569 Y136.313 E1.1892
G1 X122.458 Y135.793 E1.19981
G1 X122.361 Y135.035 E1.21506
G1 X122.311 Y134.522 E1.22534
G1 X122.08 Y131.83 E1.27926
G1 X121.893 Y129.832 E1.31931
G1 X121.813 Y129.107 E1.33386
G1 X121.737 Y128.528 E1.34552
G1 X121.623 Y127.845 E1.35934
G1 X121.273 Y127.844 E1.36632
G1 X120.994 Y127.803 E1.37195
G1 X120.737 Y127.686 E1.37758
G1 X120.523 Y127.502 E1.38322
G1 X120.369 Y127.266 E1.38884
G1 X120.276 Y126.956 E1.3953
G1 X120.274 Y124.412 E1.44607
G1 X120.262 Y123.211 E1.47004
G1 X120.21 Y121.562 E1.50296
G1 X120.166 Y120.832 E1.51755
G1 X120.114 Y120.25 E1.52921
G1 X120.055 Y119.785 E1.53857
G1 X119.995 Y119.443 E1.5455
G1 X119.883 Y118.996 E1.55469
G1 X119.693 Y118.757 E1.56079
G1 X119.385 Y118.549 E1.5682
G1 X119.131 Y118.426 E1.57384
G1 X118.638 Y118.164 E1.58498
G1 X118.314 Y117.967 E1.59254
G1 X117.617 Y117.568 E1.60857
G1 X117.376 Y117.513 E1.6135
G1 X117.122 Y117.425 E1.61887
G1 X116.811 Y117.461 E1.62512
G1 X116.145 Y117.44 E1.63841
G1 X115.405 Y117.387 E1.65322
G1 X114.645 Y117.187 E1.6689
G1 X113.711 Y116.891 E1.68845
G1 X113.357 Y116.759 E1.69599
G1 X112.98 Y116.633 E1.70393
G1 X112.728 Y116.507 E1.70955
G1 X112.521 Y116.315 E1.71518
G1 X112.376 Y116.074 E1.7208
G1 X112.304 Y115.801 E1.72643
G1 X112.311 Y115.519 E1.73206
G1 X112.397 Y115.25 E1.7377
G1 X112.614 Y114.954 E1.74502
G1 X112.849 Y114.734 E1.75144
G1 X112.925 Y114.527 E1.75584
G1 X112.877 Y111.799 E1.81029
G1 X112.755 Y111.286 E1.82082
G1 X112.555 Y111.148 E1.82567
G1 X112.273 Y111.014 E1.8319
G1 X111.963 Y110.92 E1.83836
G1 X111.796 Y110.859 E1.84191
G1 X111.254 Y110.741 E1.85298
G1 X110.63 Y110.663 E1.86553
G1 X110.358 Y110.589 E1.87115
G1 X110.117 Y110.442 E1.87679
G1 X110.049 Y110.367 E1.87881
G1 X109.984 Y110.439 E1.88074
G1 X109.745 Y110.589 E1.88637
G1 X109.465 Y110.667 E1.89217
G1 X108.822 Y110.749 E1.90511
G1 X108.361 Y110.845 E1.91451
G1 X107.897 Y110.989 E1.9242
G1 X107.539 Y111.152 E1.93205
G1 X107.349 Y111.282 E1.93665
G1 X107.183 Y112.554 E1.96225
G1 X107.164 Y113.328 E1.9777
G1 X107.226 Y114.773 E2.00656
G1 X107.407 Y114.933 E2.01138
G1 X107.589 Y115.148 E2.017
G1 X107.704 Y115.406 E2.02264
G1 X107.743 Y115.685 E2.02826
G1 X107.702 Y115.964 E2.03389
G1 X107.585 Y116.221 E2.03952
G1 X107.401 Y116.434 E2.04514
G1 X107.132 Y116.609 E2.05154
G1 X106.738 Y116.724 E2.05974
G1 X105.413 Y117.154 E2.08754
G1 X104.646 Y117.325 E2.10322
G1 X103.978 Y117.371 E2.11658
G1 X103.261 Y117.396 E2.1309
G1 X102.984 Y117.369 E2.13645
G1 X102.753 Y117.448 E2.14132
G1 X102.502 Y117.513 E2.1465
G1 X102.235 Y117.673 E2.15271
G1 X101.832 Y117.895 E2.16189
G1 X101.472 Y118.115 E2.17031
G1 X101.234 Y118.245 E2.17572
G1 X101.001 Y118.355 E2.18086
G1 X100.638 Y118.556 E2.18914
G1 X100.362 Y118.765 E2.19605
G1 X100.205 Y119.009 E2.20184
G1 X100.073 Y119.496 E2.21191
G1 X99.985 Y120.053 E2.22317
G1 X99.906 Y120.886 E2.23986
G1 X99.853 Y121.671 E2.25556
G1 X99.82 Y122.635 E2.27481
G1 X99.798 Y123.667 E2.29541
G1 X99.788 Y124.82 E2.31842
G1 X99.786 Y126.84 E2.35873
G1 X99.746 Y127.119 E2.36436
G1 X99.629 Y127.376 E2.36999
G1 X99.446 Y127.59 E2.37561
G1 X99.21 Y127.745 E2.38125
G1 X98.902 Y127.839 E2.38767
G1 X98.463 Y127.84 E2.39644
G1 X98.347 Y128.524 E2.41028
G1 X98.271 Y129.103 E2.42193
G1 X98.188 Y129.844 E2.43681
G1 X98.08 Y130.951 E2.45901
G1 X97.769 Y134.535 E2.5308
G1 X97.677 Y135.413 E2.54842
G1 X97.6 Y135.914 E2.55853
G1 X97.493 Y136.274 E2.56603
G1 X97.288 Y136.597 E2.57366
G1 X97.076 Y136.783 E2.57929
G1 X96.821 Y136.903 E2.58492
G1 X96.538 Y136.947 E2.59063
G1 X96.23 Y136.95 E2.59678
G1 X95.95 Y136.913 E2.60241
G1 X95.692 Y136.799 E2.60804
G1 X95.476 Y136.618 E2.61367
G1 X95.319 Y136.383 E2.61931
G1 X95.22 Y136.07 E2.62586
G1 X95.229 Y110.883 E3.12849
G0 F6000 X95.629 Y110.883
G1 F1200 X95.669 Y110.668 E3.13286
G1 X95.783 Y110.482 E3.13721
G1 X95.955 Y110.349 E3.14155
G1 X96.229 Y110.283 E3.14717
G1 X100.34 Y110.281 E3.22921
G1 X101.772 Y110.253 E3.2578
G1 X102.747 Y110.212 E3.27727
G1 X103.463 Y110.164 E3.29159
G1 X104.13 Y110.103 E3.30496
G1 X104.865 Y110.009 E3.31974
G1 X105.438 Y109.903 E3.33137
G1 X105.977 Y109.762 E3.34249
G1 X106.484 Y109.601 E3.35311
G1 X106.947 Y109.438 E3.3629
G1 X107.373 Y109.277 E3.37199
G1 X108.342 Y108.876 E3.39292
G1 X108.799 Y108.71 E3.40262
G1 X109.215 Y108.61 E3.41116
G1 X109.433 Y108.601 E3.41551
G1 X109.64 Y108.67 E3.41987
G1 X109.808 Y108.809 E3.42422
G1 X109.916 Y108.999 E3.42858
G1 X109.949 Y109.207 E3.43278
G1 X109.939 Y109.687 E3.44236
G1 X109.895 Y109.901 E3.44672
G1 X109.777 Y110.085 E3.45109
G1 X109.549 Y110.253 E3.45674
G1 X108.752 Y110.355 E3.47277
G1 X108.264 Y110.456 E3.48272
G1 X107.755 Y110.615 E3.49336
G1 X107.338 Y110.804 E3.5025
G1 X107.058 Y110.995 E3.50926
G1 X106.969 Y111.097 E3.51196
G1 X106.783 Y112.52 E3.5406
G1 X106.763 Y113.332 E3.55681
G1 X106.83 Y114.896 E3.58805
G1 X106.919 Y115.035 E3.59134
G1 X107.141 Y115.232 E3.59727
G1 X107.275 Y115.404 E3.60162
G1 X107.339 Y115.613 E3.60598
G1 X107.324 Y115.83 E3.61032
G1 X107.232 Y116.028 E3.61468
G1 X107.033 Y116.222 E3.62022
G1 X106.611 Y116.344 E3.62899
G1 X105.326 Y116.764 E3.65597
G1 X104.591 Y116.928 E3.671
G1 X103.93 Y116.973 E3.68422
G1 X103.247 Y116.997 E3.69786
G1 X102.953 Y116.954 E3.70379
G1 X102.652 Y117.061 E3.71016
G1 X102.347 Y117.14 E3.71645
G1 X102.042 Y117.323 E3.72355
G1 X101.63 Y117.55 E3.73293
G1 X101.281 Y117.764 E3.7411
G1 X101.043 Y117.894 E3.74652
G1 X100.811 Y118.003 E3.75163
G1 X100.422 Y118.218 E3.7605
G1 X100.063 Y118.492 E3.76951
G1 X99.892 Y118.756 E3.77579
G1 X99.79 Y119.012 E3.78129
G1 X99.681 Y119.411 E3.78954
G1 X99.588 Y120.003 E3.8015
G1 X99.507 Y120.859 E3.81866
G1 X99.454 Y121.644 E3.83436
G1 X99.42 Y122.635 E3.85415
G1 X99.398 Y123.659 E3.87459
G1 X99.388 Y124.816 E3.89768
G1 X99.386 Y126.84 E3.93807
G1 X99.346 Y127.054 E3.94242
G1 X99.232 Y127.24 E3.94677
G1 X99.059 Y127.373 E3.95112
G1 X98.787 Y127.439 E3.95671
G1 X98.154 Y127.44 E3.96934
G1 X98.037 Y127.96 E3.97998
G1 X97.953 Y128.457 E3.99004
G1 X97.872 Y129.071 E4.0024
G1 X97.79 Y129.8 E4.01704
G1 X97.682 Y130.912 E4.03933
G1 X97.371 Y134.494 E4.11108
G1 X97.275 Y135.401 E4.12929
G1 X97.205 Y135.853 E4.13841
G1 X97.075 Y136.194 E4.1457
G1 X96.95 Y136.373 E4.15005
G1 X96.77 Y136.496 E4.1544
G1 X96.534 Y136.547 E4.15922
G1 X96.226 Y136.55 E4.16537
G1 X96.011 Y136.512 E4.16973
G1 X95.824 Y136.4 E4.17408
G1 X95.689 Y136.229 E4.17842
G1 X95.62 Y135.95 E4.18416
G1 X95.629 Y110.883 E4.6844
G0 F6000 X96.029 Y110.883
G1 F1200 X96.068 Y110.764 E4.6869
G1 X96.229 Y110.683 E4.69049
G1 X100.348 Y110.681 E4.77269
G1 X101.775 Y110.653 E4.80118
G1 X102.774 Y110.61 E4.82113
G1 X103.501 Y110.563 E4.83567
G1 X104.166 Y110.502 E4.84899
G1 X104.924 Y110.405 E4.86424
G1 X105.528 Y110.293 E4.8765
G1 X106.091 Y110.145 E4.88812
G1 X106.615 Y109.979 E4.89909
G1 X107.08 Y109.815 E4.90893
G1 X107.514 Y109.651 E4.91819
G1 X108.479 Y109.252 E4.93903
G1 X108.959 Y109.079 E4.94921
G1 X109.304 Y109 E4.95627
G1 X109.429 Y109.012 E4.95878
G1 X109.551 Y109.121 E4.96204
G1 X109.539 Y109.679 E4.97318
G1 X109.497 Y109.797 E4.97568
G1 X109.364 Y109.873 E4.97874
G1 X108.697 Y109.958 E4.99216
G1 X108.156 Y110.071 E5.00319
G1 X107.615 Y110.239 E5.01449
G1 X107.142 Y110.454 E5.02486
G1 X106.787 Y110.697 E5.03344
G1 X106.588 Y110.925 E5.03948
G1 X106.384 Y112.487 E5.07092
G1 X106.363 Y113.323 E5.08761
G1 X106.436 Y115.022 E5.12154
G1 X106.612 Y115.297 E5.12806
G1 X106.876 Y115.531 E5.1351
G1 X106.939 Y115.639 E5.1376
G1 X106.925 Y115.763 E5.14009
G1 X106.799 Y115.873 E5.14342
G1 X106.493 Y115.962 E5.14978
G1 X105.239 Y116.373 E5.17612
G1 X104.518 Y116.532 E5.19085
G1 X103.916 Y116.573 E5.20289
G1 X103.233 Y116.597 E5.21653
G1 X102.921 Y116.54 E5.22286
G1 X102.551 Y116.674 E5.23071
G1 X102.192 Y116.768 E5.23812
G1 X101.849 Y116.972 E5.24608
G1 X101.437 Y117.199 E5.25547
G1 X101.089 Y117.413 E5.26362
G1 X100.84 Y117.548 E5.26928
G1 X100.639 Y117.642 E5.2737
G1 X100.199 Y117.885 E5.28374
G1 X99.899 Y118.113 E5.29125
G1 X99.698 Y118.32 E5.29701
G1 X99.536 Y118.571 E5.30297
G1 X99.409 Y118.887 E5.30977
G1 X99.29 Y119.325 E5.31883
G1 X99.192 Y119.95 E5.33145
G1 X99.108 Y120.832 E5.34913
G1 X99.055 Y121.617 E5.36484
G1 X99.02 Y122.621 E5.38488
G1 X98.998 Y123.65 E5.40542
G1 X98.988 Y124.813 E5.42863
G1 X98.986 Y126.839 E5.46906
G1 X98.947 Y126.958 E5.47156
G1 X98.786 Y127.039 E5.47516
G1 X97.944 Y127.041 E5.49196
G1 X97.832 Y127.186 E5.49562
G1 X97.722 Y127.538 E5.50298
G1 X97.641 Y127.9 E5.51038
G1 X97.558 Y128.39 E5.5203
G1 X97.476 Y129.014 E5.53286
G1 X97.393 Y129.755 E5.54774
G1 X97.284 Y130.873 E5.57016
G1 X96.973 Y134.452 E5.64185
G1 X96.88 Y135.34 E5.65966
G1 X96.81 Y135.792 E5.66879
G1 X96.71 Y136.029 E5.67393
G1 X96.603 Y136.146 E5.67709
G1 X96.222 Y136.15 E5.68469
G1 X96.103 Y136.112 E5.68719
G1 X96.02 Y135.95 E5.69082
G1 X96.029 Y110.883 E6.19106
G1 F1500 E3.19106
G0 F6000 X96.028 Y110.218
G0 X110.016 Y108.374
G0 X110.015 Y109.199
G0 X110.148 Y109.203
G1 F1500 E6.19106
G1 F1200 X110.185 Y108.988 E6.19541
G1 X110.296 Y108.8 E6.19977
G1 X110.468 Y108.665 E6.20413
G1 X110.676 Y108.599 E6.20849
G1 X110.888 Y108.612 E6.21273
G1 X111.303 Y108.715 E6.22126
G1 X111.75 Y108.878 E6.23075
G1 X112.714 Y109.273 E6.25154
G1 X113.627 Y109.606 E6.27094
G1 X114.134 Y109.767 E6.28155
G1 X114.543 Y109.876 E6.29
G1 X115.228 Y110.012 E6.30394
G1 X115.968 Y110.107 E6.31883
G1 X116.629 Y110.165 E6.33207
G1 X117.59 Y110.226 E6.35128
G1 X118.343 Y110.256 E6.36632
G1 X119.069 Y110.275 E6.38082
G1 X120.389 Y110.288 E6.40716
G1 X123.866 Y110.29 E6.47655
G1 X124.081 Y110.33 E6.48091
G1 X124.267 Y110.444 E6.48526
G1 X124.4 Y110.617 E6.48962
G1 X124.466 Y110.89 E6.49522
G1 X124.464 Y135.956 E6.99544
G1 X124.424 Y136.171 E6.99981
G1 X124.311 Y136.357 E7.00415
G1 X124.138 Y136.49 E7.0085
G1 X123.859 Y136.556 E7.01423
G1 X123.51 Y136.553 E7.02119
G1 X123.296 Y136.511 E7.02554
G1 X123.11 Y136.396 E7.02991
G1 X122.951 Y136.184 E7.0352
G1 X122.849 Y135.71 E7.04487
G1 X122.759 Y134.996 E7.05923
G1 X122.709 Y134.488 E7.06942
G1 X122.479 Y131.788 E7.1235
G1 X122.292 Y129.795 E7.16344
G1 X122.212 Y129.076 E7.17788
G1 X122.128 Y128.442 E7.19064
G1 X122.05 Y127.975 E7.20009
G1 X121.929 Y127.446 E7.21092
G1 X121.274 Y127.444 E7.22399
G1 X121.06 Y127.404 E7.22834
G1 X120.874 Y127.289 E7.2327
G1 X120.741 Y127.116 E7.23706
G1 X120.676 Y126.844 E7.24264
G1 X120.674 Y124.411 E7.29119
G1 X120.662 Y123.207 E7.31522
G1 X120.608 Y121.52 E7.3489
G1 X120.564 Y120.797 E7.36336
G1 X120.51 Y120.196 E7.3754
G1 X120.451 Y119.729 E7.38479
G1 X120.387 Y119.362 E7.39223
G1 X120.296 Y119.001 E7.39966
G1 X120.176 Y118.723 E7.4057
G1 X119.965 Y118.457 E7.41247
G1 X119.584 Y118.2 E7.42164
G1 X119.286 Y118.056 E7.42825
G1 X118.845 Y117.822 E7.43821
G1 X118.501 Y117.613 E7.44624
G1 X118.049 Y117.352 E7.45666
G1 X117.766 Y117.192 E7.46315
G1 X117.465 Y117.123 E7.46931
G1 X117.159 Y117.011 E7.47581
G1 X116.824 Y117.061 E7.48257
G1 X116.158 Y117.04 E7.49587
G1 X115.472 Y116.991 E7.5096
G1 X114.719 Y116.792 E7.52514
G1 X113.85 Y116.516 E7.54333
G1 X113.496 Y116.384 E7.55087
G1 X113.107 Y116.254 E7.55906
G1 X112.916 Y116.148 E7.56342
G1 X112.775 Y115.982 E7.56776
G1 X112.704 Y115.775 E7.57213
G1 X112.711 Y115.557 E7.57648
G1 X112.811 Y115.318 E7.58165
G1 X113.164 Y114.988 E7.5913
G1 X113.283 Y114.79 E7.59591
G1 X113.326 Y114.56 E7.60058
G1 X113.276 Y111.751 E7.65664
G1 X113.109 Y111.044 E7.67114
G1 X112.771 Y110.808 E7.67937
G1 X112.411 Y110.638 E7.68731
G1 X112.042 Y110.524 E7.69502
G1 X111.911 Y110.474 E7.69782
G1 X111.525 Y110.396 E7.70568
G1 X111.32 Y110.346 E7.70989
G1 X110.68 Y110.266 E7.72276
G1 X110.472 Y110.2 E7.72711
G1 X110.301 Y110.065 E7.73146
G1 X110.156 Y109.819 E7.73716
G1 X110.148 Y109.203 E7.74945
G0 F6000 X110.548 Y109.198
G1 F1200 X110.586 Y109.078 E7.75196
G1 X110.717 Y108.982 E7.75521
G1 X111.166 Y109.091 E7.76443
G1 X111.62 Y109.257 E7.77407
G1 X112.583 Y109.651 E7.79484
G1 X113.498 Y109.984 E7.81427
G1 X114.023 Y110.152 E7.82527
G1 X114.447 Y110.264 E7.83402
G1 X114.824 Y110.344 E7.84171
G1 X115.172 Y110.408 E7.84877
G1 X115.931 Y110.506 E7.86404
G1 X116.595 Y110.563 E7.87734
G1 X117.579 Y110.626 E7.89702
G1 X118.327 Y110.656 E7.91196
G1 X119.058 Y110.675 E7.92655
G1 X120.385 Y110.688 E7.95304
G1 X123.866 Y110.69 E8.0225
G1 X123.985 Y110.729 E8.025
G1 X124.066 Y110.89 E8.0286
G1 X124.064 Y135.956 E8.52882
G1 X124.025 Y136.075 E8.53132
G1 X123.862 Y136.156 E8.53495
G1 X123.513 Y136.153 E8.54191
G1 X123.395 Y136.113 E8.5444
G1 X123.319 Y135.995 E8.5472
G1 X123.24 Y135.626 E8.55473
G1 X123.157 Y134.957 E8.56819
G1 X123.108 Y134.454 E8.57827
G1 X122.877 Y131.754 E8.63235
G1 X122.69 Y129.758 E8.67236
G1 X122.608 Y129.019 E8.68719
G1 X122.525 Y128.389 E8.69987
G1 X122.444 Y127.905 E8.70967
G1 X122.36 Y127.537 E8.7172
G1 X122.249 Y127.186 E8.72455
G1 X122.142 Y127.047 E8.72805
G1 X121.275 Y127.044 E8.74535
G1 X121.157 Y127.005 E8.74783
G1 X121.076 Y126.844 E8.75143
G1 X121.074 Y124.411 E8.79998
G1 X121.062 Y123.203 E8.82409
G1 X121.008 Y121.507 E8.85795
G1 X120.962 Y120.755 E8.87299
G1 X120.909 Y120.16 E8.88491
G1 X120.847 Y119.672 E8.89472
G1 X120.78 Y119.285 E8.90256
G1 X120.676 Y118.871 E8.91108
G1 X120.522 Y118.516 E8.9188
G1 X120.316 Y118.257 E8.92541
G1 X120.091 Y118.06 E8.93137
G1 X119.783 Y117.852 E8.93879
G1 X119.473 Y117.702 E8.94566
G1 X119.053 Y117.48 E8.95514
G1 X118.709 Y117.271 E8.96318
G1 X118.23 Y116.995 E8.97421
G1 X118.181 Y116.974 E8.97527
G1 X117.916 Y116.815 E8.98144
